X: 39117
T: Sweet Biddy Of Ballyvourney
R: reel
M: 4/4
K: Gmajor
|:G2BG Bdde|fdge fdcA|G2BG Bdde|fdcA AGG2:|
g2dg g2ag|fdde fgaf|g2dg g2ag|fdcA AGG2|
g2dg g2ag|~f3g fdcA|defg abag|fdcA AGG2||

